material/.icons/material/fire-extinguisher.svg

<svg xmlns="http://www.w3.org/2000/svg" viewBox="0 0 24 24"><path d="M10.5 7h1.25L12 5h-1.75L6 7.5V9H4V6.5L10 3h2V2h2v1h2l1-.5v3L16 5h-2l.25 2h1.25A1.5 1.5 0 0117 8.5V22H9V8.5A1.5 1.5 0 0110.5 7z"/></svg>

<?xml version="1.0" encoding="UTF-8"?><!DOCTYPE svg PUBLIC "-//W3C//DTD SVG 1.1//EN" "http://www.w3.org/Graphics/SVG/1.1/DTD/svg11.dtd"><svg xmlns="http://www.w3.org/2000/svg" xmlns:xlink="http://www.w3.org/1999/xlink" version="1.1" id="mdi-fire-extinguisher" width="24" height="24" viewBox="0 0 24 24"><path d="M10.5,7H11.75L12,5H10.25L6,7.5V9H4V6.5L10,3H12V2H14V3H16L17,2.5V5.5L16,5H14L14.25,7H15.5A1.5,1.5 0 0,1 17,8.5V22H9V8.5A1.5,1.5 0 0,1 10.5,7Z" /></svg>
